X:795
T:the Bride's march
M:12/8
O:Shetland
R:Wedding march
Z:Richard Robinson 
%%TUNEURL: http://www.leeds.ac.uk/music/Info/RRTuneBk/gettune/000009a9.html
%%ID:000009a9
K:G
e |\
gde gde gab {ab}age | gdB A2g fga e3 | \
gde gde gab {cb}age |
gdB (4ABcA BAG G2 :: c |\
BGA Bgd (4BABd BAG | \
{EF}ED2 D2g fga A2c |
{c}BGA Bgd (4{c}BABd {c}BAG | EGA BdA {c}BAG G2:|
